app/dist/common/images/riot-blockchain.svg

<svg height="18" width="18" xmlns="http://www.w3.org/2000/svg"><path d="m0 0h18v18h-18z" fill="#0c609a"/><path d="m9 14a5 5 0 1 0 0-10 5 5 0 0 0 0 10zm0 1a6 6 0 1 0 0-12 6 6 0 0 0 0 12z" fill="#fff" fill-rule="evenodd"/><path d="m10.925 11.994-1.3-2.081c.813-.044.838-.105.993-.203l1.472 2.284z" fill="#7fbbde"/><path d="m6.694 6.004-.898.996h1.916v-.996zm1.338 0h.638v.996h-.638zm2.2 0h-1.242v.996h1.159c.328 0 .856.374.852.998-.004.625-.491 1.001-.852 1.001h-.585v1.001c.584-.067 2.436 0 2.436-2 0-1.757-1.183-1.998-1.768-1.996zm-4.232 2.996h1v2.996h-1z" fill="#fff"/><path d="m7 9h2.628v1h-2.628z" fill="#7fbbde"/></svg>

<!-- by TradingView --><svg width="18" height="18" xmlns="http://www.w3.org/2000/svg"><path fill="#0C609A" d="M0 0h18v18H0z"/><path fill-rule="evenodd" d="M9 14A5 5 0 109 4a5 5 0 000 10zm0 1A6 6 0 109 3a6 6 0 000 12z" fill="#fff"/><path d="M10.925 11.994l-1.3-2.081c.813-.044.838-.105.993-.203l1.472 2.284h-1.165z" fill="#7FBBDE"/><path d="M6.694 6.004L5.796 7h1.916v-.996H6.694zm1.338 0h.638V7h-.638v-.996zm2.2 0H8.99V7h1.159c.328 0 .856.374.852.998-.004.625-.491 1.001-.852 1.001h-.585V10C10.148 9.933 12 10 12 8c0-1.757-1.183-1.998-1.768-1.996zM6 9h1v2.996H6V9z" fill="#fff"/><path d="M7 9h2.628v1H7V9z" fill="#7FBBDE"/></svg>
